X: 072047
T: Good Ship Ernestina
C: BB 11/05
N: 210
L: 1/8
M: 4/4
R: reel
Q: 1/4 = 170
K: G
A | "G" BAGE DG ~G2 | "Am" AGFG "D7" AdcA |
"G" BAGA BcdB | "Em" edef "C" gedc |
"G" BAGE DG ~G2 | "Am" AGFG "D7" AdcA |
"Bm" Bdef "C"(3gfe dc | "G"BG "D"AF "G"G3 :|
D | "Em"E2 BE "D"DFAF | "G" GFGA BABc |
"Bm" dB ~B2 "D7" cAFA | "G" GB "D"AF "C" E2 GF |
"Em"E2 BE "D"DFAF | "G" GFGA BABc |
"Em7" dgfe "D7" dBcA | "G"BG "D"AF "G"G3 :|
